assets/Bus stop/Flat/bus_stop_flat.svg

<svg width="32" height="32" viewBox="0 0 32 32" fill="none" xmlns="http://www.w3.org/2000/svg">
<path d="M6.99274 2H2.99274V30H6.99274V2Z" fill="#9B9B9B"/>
<path d="M2.89921 10H8.08626C8.58986 10 8.99274 9.58481 8.99274 9.07848V6.91139C8.99274 6.40506 8.58986 6 8.08626 6H2.89921C2.39561 6 1.99274 6.40506 1.99274 6.91139V9.08861C1.99274 9.59494 2.39561 10 2.89921 10ZM2.89921 23H8.08626C8.58986 23 8.99274 22.5838 8.99274 22.0863V19.9137C8.99274 19.4061 8.58986 19 8.08626 19H2.89921C2.39561 19 1.99274 19.4061 1.99274 19.9137V22.0863C1.99274 22.5939 2.39561 23 2.89921 23Z" fill="#D3D3D3"/>
<path d="M10.2474 25H26.738C27.9817 25 28.9927 23.9889 28.9927 22.7453V6.25469C28.9927 5.01107 27.9817 4 26.738 4H10.2474C9.00381 4 7.99274 5.01107 7.99274 6.25469V22.7453C7.99274 23.9889 9.00381 25 10.2474 25Z" fill="#46A4FB"/>
<path d="M13.4682 21.0094C13.2052 21.0094 12.9927 20.7966 12.9927 20.5331V18.4762C12.9927 18.2128 13.2052 18 13.4682 18H14.5202C14.7832 18 14.9956 18.2128 14.9956 18.4762V20.5331C14.9855 20.8067 14.7731 21.0094 14.5202 21.0094H13.4682ZM21.4682 21.0094H22.5202C22.7832 21.0094 22.9956 20.8067 22.9956 20.5331V18.4762C22.9956 18.2128 22.7832 18 22.5202 18H21.4682C21.2052 18 20.9927 18.2128 20.9927 18.4762V20.5331C20.9927 20.7966 21.2052 21.0094 21.4682 21.0094Z" fill="#321B41"/>
<path d="M22.3482 19H13.6373C13.2782 19 12.9927 18.7304 12.9927 18.3913V16H22.9927V18.3913C22.9927 18.7304 22.6981 19 22.3482 19Z" fill="#FFB02E"/>
<path d="M21.4438 8H14.547C13.6906 8 13 8.72911 13 9.64051V16H23V9.64051C23 8.72911 22.3094 8 21.4438 8Z" fill="#F4F4F4"/>
<path d="M12.6027 15.0018H12.3827C12.1727 15.0018 12.0027 14.7962 11.9927 14.5301V12.4736C11.9927 12.2075 12.1727 12.0018 12.3827 12.0018H12.6027C12.8227 12.0018 12.9927 12.2196 12.9927 12.4736V14.5301C12.9927 14.7962 12.8127 15.0018 12.6027 15.0018ZM23.6027 15H23.3827C23.1627 15 22.9927 14.7945 22.9927 14.5286V12.4733C22.9927 12.2074 23.1727 12.0018 23.3827 12.0018H23.6027C23.8227 12.0018 23.9927 12.2194 23.9927 12.4733V14.5286C23.9927 14.7945 23.8127 15 23.6027 15Z" fill="#321B41"/>
<path d="M21.5673 15H14.4414C14.1982 15 14 14.7523 14 14.4482V10H21.9997V14.4482C22.0087 14.7523 21.8105 15 21.5673 15Z" fill="#26C9FC"/>
<path d="M15.253 17.0012H20.747C20.8887 17.0012 21 16.8912 21 16.7512C21 16.6112 20.8887 16.5012 20.747 16.5012H15.253C15.1113 16.5012 15 16.6112 15 16.7512C15 16.8912 15.1113 17.0012 15.253 17.0012ZM16.2525 18H19.7475C19.8889 18 20 17.89 20 17.75C20 17.61 19.8889 17.5 19.7475 17.5H16.2525C16.1111 17.5 16 17.61 16 17.75C16 17.89 16.1111 18 16.2525 18Z" fill="#E6E6E6"/>
<path d="M22.9927 17V18.3913C22.9927 18.7003 22.7481 18.9515 22.44 18.9938C22.1895 18.9693 21.9927 18.7568 21.9927 18.4996V17.4965C21.9927 17.2229 22.2153 17 22.4884 17H22.9927ZM12.9927 18.3913C12.9927 18.7008 13.2304 18.9523 13.5449 18.9939C13.7964 18.9704 13.9942 18.7575 13.9942 18.4996V17.4965C13.9942 17.2229 13.7716 17 13.4985 17H12.9927V18.3913Z" fill="#FFF478"/>
<path d="M21.991 10H14V9.33108C14 9.14865 14.198 9 14.4409 9H21.5591C21.802 9 22 9.14865 22 9.33108V10H21.991Z" fill="#321B41"/>
</svg>

<svg xmlns="http://www.w3.org/2000/svg" width="32" height="32" fill="none"><path fill="#9B9B9B" d="M6.993 2h-4v28h4V2Z"/><path fill="#D3D3D3" d="M2.9 10h5.186a.914.914 0 0 0 .907-.922V6.911A.905.905 0 0 0 8.086 6H2.9a.905.905 0 0 0-.906.911V9.09c0 .506.403.911.906.911Zm0 13h5.186a.913.913 0 0 0 .907-.914v-2.172A.906.906 0 0 0 8.086 19H2.9a.906.906 0 0 0-.906.914v2.172c0 .508.403.914.906.914Z"/><path fill="#46A4FB" d="M10.247 25h16.491a2.257 2.257 0 0 0 2.255-2.255V6.255A2.257 2.257 0 0 0 26.738 4h-16.49a2.257 2.257 0 0 0-2.255 2.255v16.49A2.257 2.257 0 0 0 10.247 25Z"/><path fill="#321B41" d="M13.468 21.01a.475.475 0 0 1-.475-.477v-2.057c0-.263.212-.476.475-.476h1.052c.263 0 .476.213.476.476v2.057a.482.482 0 0 1-.476.476h-1.052Zm8 0h1.052a.469.469 0 0 0 .476-.477v-2.057A.475.475 0 0 0 22.52 18h-1.052a.475.475 0 0 0-.475.476v2.057c0 .264.212.476.475.476Z"/><path fill="#FFB02E" d="M22.348 19h-8.71c-.36 0-.645-.27-.645-.609V16h10v2.391c0 .34-.295.609-.645.609Z"/><path fill="#F4F4F4" d="M21.444 8h-6.897C13.691 8 13 8.73 13 9.64V16h10V9.64C23 8.73 22.31 8 21.444 8Z"/><path fill="#321B41" d="M12.603 15.002h-.22c-.21 0-.38-.206-.39-.472v-2.056c0-.267.18-.472.39-.472h.22c.22 0 .39.218.39.472v2.056c0 .266-.18.472-.39.472Zm11-.002h-.22c-.22 0-.39-.206-.39-.471v-2.056c0-.266.18-.471.39-.471h.22c.22 0 .39.217.39.471v2.056c0 .265-.18.471-.39.471Z"/><path fill="#26C9FC" d="M21.567 15h-7.126c-.243 0-.441-.248-.441-.552V10h8v4.448c.009.304-.19.552-.433.552Z"/><path fill="#E6E6E6" d="M15.253 17.001h5.494a.25.25 0 0 0 .253-.25.25.25 0 0 0-.253-.25h-5.494a.25.25 0 0 0-.253.25c0 .14.111.25.253.25Zm1 .999h3.494c.142 0 .253-.11.253-.25s-.111-.25-.253-.25h-3.494a.249.249 0 0 0-.253.25c0 .14.111.25.253.25Z"/><path fill="#FFF478" d="M22.993 17v1.391c0 .31-.245.56-.553.603a.497.497 0 0 1-.447-.494v-1.003c0-.274.222-.497.495-.497h.505Zm-10 1.391c0 .31.237.561.552.603a.497.497 0 0 0 .45-.494v-1.003a.497.497 0 0 0-.496-.497h-.506v1.391Z"/><path fill="#321B41" d="M21.991 10H14v-.669c0-.182.198-.331.44-.331h7.12c.242 0 .44.149.44.331V10h-.009Z"/></svg>
